!!!!SEGMENT: pl-stab--8a--001-008_dankowski-adalbert--requiem-lux-aeterna.krn
!!!cenid: 18xx:3482
!!!COM: Dankowski, Adalbert
!!!COM-rismID: pe30000793
!!!CDT: ~1760-~1836
!!!CNT: Polish
!!!OPR: Requiem
!!!OTL: Lux aeterna
!!!OMV: 008
!!!PDT:
!!!AGN:
!!!YEC: Copyright 2022 Narodowy Instytut Fryderyka Chopina (https://polishscores.org)
!!!YEM: License CC-BY-4.0 (https://creativecommons.org/licenses/by/4.0)
!!!SMS-siglum: PL-STAb
!!!SMS-shelfmark: 8a
!!!SMS-shelfwork: 001-008 M
!!!SMS-variant:
!!!SMS-altvar:
!!!NIFC-rismSourceID: 301050561
!!!NIFC-rismChildID: 301050561
!!!NIFC-islandoraID: pl-stab:1903
!!!URL-pdf-islandora: https://repozytorium.nifc.pl/islandora/object/pl-stab%3A1903/datastream/PDF/view
!!!URL-scan: https://polish.musicsources.pl/pl/lokalizacje/galeria/rekopisy/4640 @EN{Scan on Polish Music Sources Website} @PL{Skany w portalu Dziedzictwo Muzyki Polskiej w otwartym dostępie}
!!!IIIF:
!!!ONB-nifc: UWAGA: części Requiem: 1. Requiem aeternam, 2. Kyrie, 3. Dies irae, 4. Domine Jesu Christe, 5. Sanctus, 6. Benedictus, 7. Agnus Dei, 8. Lux aeterna
!!!AIN: 1 alto 1 bass 2 clars 2 cor 1 organ 1 soprn 1 tenor 2 violn
!!!key: E-
!!!OMD:
!!!OMD-mod: Adagio
**kern	**fba	**dynam	**kern	**dynam	**kern	**dynam	**kern	**text	**kern	**text	**kern	**text	**kern	**text	**kern	**dynam	**kern	**dynam	**kern	**dynam	**kern	**dynam
*	*	*	*group4	*	*group4	*	*group3	*	*group3	*	*group3	*	*group3	*	*group2	*	*group2	*	*group1	*	*group1	*
*part11	*	*	*part10	*	*part9	*	*part8	*	*part7	*	*part6	*	*part5	*	*part4	*	*part3	*	*part2	*	*part1	*
*staff11	*	*	*staff10	*	*staff9	*	*staff8	*	*staff7	*	*staff6	*	*staff5	*	*staff4	*	*staff3	*	*staff2	*	*staff1	*
*I"Organo	*	*	*I"Violino Secundo	*	*I"Violino Primo	*	*I"Baſso	*	*I"Tenor	*	*I"Alto	*	*I"Canto	*	*I"Cornu Secundo in Dis	*	*I"Cornu Primo in Dis	*	*I"Clarinetto Secundo in Es!	*	*I"Clarinetto Primo in Es	*
*	*	*	*mI"Violino II	*	*mI"Violino I	*	*mI"Basso	*	*mI"Tenore	*	*	*	*mI"Soprano	*	*mI"Corno II in Eb	*	*mI"Corno I in Eb	*	*mI"Clarinetto II in Bb	*	*mI"Clarinetto I in Bb	*
*I'org	*	*	*I'vl 2	*	*I'vl 1	*	*I'B	*	*I'T	*	*I'A	*	*I'S	*	*I'cor 2 in Dis	*	*I'cor 1 in Dis	*	*I'cl 2 in E|b	*	*I'cl 1 in E|b	*
*	*	*	*	*	*	*	*	*	*	*	*	*	*	*	*mI'cor 2 in E|b	*	*mI'cor 1 in E|b	*	*mI'cl 1 in B|b	*	*mI'cl 1 in B|b	*
*Iorgan	*	*	*Ivioln	*	*Ivioln	*	*Ibass	*	*Itenor	*	*Ialto	*	*Isoprn	*	*Icor	*	*Icor	*	*Iclars	*	*Iclars	*
*ICklav	*	*	*ICstr	*	*ICstr	*	*ICvox	*	*ICvox	*	*ICvox	*	*ICvox	*	*ICbras	*	*ICbras	*	*ICww	*	*ICww	*
*IGcont	*	*	*	*	*	*	*IGcoro	*	*IGcoro	*	*IGcoro	*	*IGcoro	*	*	*	*	*	*	*	*	*
*clefF4	*	*	*clefG2	*	*clefG2	*	*clefF4	*	*clefC4	*	*clefC3	*	*clefC1	*	*clefG2	*	*clefG2	*	*clefG2	*	*clefG2	*
*	*	*	*	*	*	*	*	*	*mclefGv2	*	*mclefG2	*	*mclefG2	*	*	*	*	*	*	*	*	*
*	*	*	*	*	*	*	*	*	*	*	*	*	*	*	*ITrd5c9	*	*ITrd5c9	*	*ITrd1c2	*	*ITrd1c2	*
*k[b-e-a-]	*	*	*k[b-e-a-]	*	*k[b-e-a-]	*	*k[b-e-a-]	*	*k[b-e-a-]	*	*k[b-e-a-]	*	*k[b-e-a-]	*	*k[b-e-a-]	*	*k[b-e-a-]	*	*k[b-e-a-]	*	*k[b-e-a-]	*
*E-:	*	*	*E-:	*	*E-:	*	*E-:	*	*E-:	*	*E-:	*	*E-:	*	*E-:	*	*E-:	*	*E-:	*	*E-:	*
*M3/4	*	*	*M3/4	*	*M3/4	*	*M3/4	*	*M3/4	*	*M3/4	*	*M3/4	*	*M3/4	*	*M3/4	*	*M3/4	*	*M3/4	*
=1	=1	=1	=1	=1	=1	=1	=1	=1	=1	=1	=1	=1	=1	=1	=1	=1	=1	=1	=1	=1	=1	=1
*2\right	*	*	*2\right	*2\right	*2\right	*2\right	*2\right	*2\right	*2\right	*2\right	*2\right	*2\right	*2\right	*2\right	*2\right	*2\right	*2\right	*2\right	*2\right	*2\right	*2\right	*2\right
!LO:TX:a:B:t=Adagio:mod=	!	!	!LO:TX:a:B:t=Adagio:mod=	!	!LO:TX:a:B:t=Adagio:mod=	!	!LO:TX:a:B:t=Adagio:mod=	!	!LO:TX:t=P:znaki:problem= EE- zamiast E-	!	!LO:TX:b:i:t=Bas solo:mod=	!	!LO:TX:b:i:t=Bas solo:mod=	!	!	!	!	!	!LO:TX:a:t=P:problem=błędna nazwa partii - powinna być in B|b	!	!LO:TX:a:t=P:problem=błędna nazwa partii - powinna być in B|b	!
!LO:TX:a:t=Solo:mod=	!	!	!LO:TX:a:t=Solo:mod=	!	!LO:TX:a:t=Solo:mod=	!	!LO:TX:a:t=Solo:mod=	!	!LO:TX:a:B:t=Adagio:mod=	!	!LO:TX:a:B:t=Adagio:mod=	!	!LO:TX:a:B:t=Adagio:mod=	!	!LO:TX:a:B:t=Adagio:mod=	!	!LO:TX:a:B:t=Adagio:mod=	!	!LO:TX:a:B:t=Adagio:mod=	!	!LO:TX:a:B:t=Adagio:mod=	!
4E-\	.	.	(8.g/L	.	(8.b-/L	.	0.r	.	0.r	.	0.r	.	0.r	.	4G/	.	4e-\	.	4b-\	.	4gg\	.
.	.	.	16f/Jk)	.	16a-/Jk)	.	.	.	.	.	.	.	.	.	.	.	.	.	.	.	.	.
4E-\	.	.	8e-|/L	.	8g|/L	.	.	.	.	.	.	.	.	.	4G/	.	4e-\	.	4b-\	.	4gg\	.
.	.	.	8e-|/	.	8g|/	.	.	.	.	.	.	.	.	.	.	.	.	.	.	.	.	.
4E-\	.	.	8f|/	.	8a-|/	.	.	.	.	.	.	.	.	.	4G/	.	4e-\	.	4b-\	.	4gg\	.
.	.	.	8g|/J	.	8b|-/J	.	.	.	.	.	.	.	.	.	.	.	.	.	.	.	.	.
=2	=2	=2	=2	=2	=2	=2	=2	=2	=2	=2	=2	=2	=2	=2	=2	=2	=2	=2	=2	=2	=2	=2
4E-\	x 4	.	(8.a-/L	.	(8.cc\L	.	.	.	.	.	.	.	.	.	4E-/	.	4e-\	.	4cc\	.	4aa-\	.
.	.	.	32g/LL	.	32b-\LL	.	.	.	.	.	.	.	.	.	.	.	.	.	.	.	.	.
.	.	.	32a-/JJJ)	.	32cc\JJJ)	.	.	.	.	.	.	.	.	.	.	.	.	.	.	.	.	.
4E-\	x 3	.	8g|/L	.	8b-|\L	.	.	.	.	.	.	.	.	.	4E-/	.	4e-\	.	4b-\	.	4gg\	.
.	.	.	8g|/	.	8ee-|\	.	.	.	.	.	.	.	.	.	.	.	.	.	.	.	.	.
4r	.	.	8f|/	.	8dd|\	.	.	.	.	.	.	.	.	.	4r	.	4r	.	4r	.	4r	.
.	.	.	8a-|/J	.	8cc|\J	.	.	.	.	.	.	.	.	.	.	.	.	.	.	.	.	.
=3	=3	=3	=3	=3	=3	=3	=3	=3	=3	=3	=3	=3	=3	=3	=3	=3	=3	=3	=3	=3	=3	=3
4E-\	.	.	4.g/	.	4.b-/	.	.	.	.	.	.	.	.	.	4G/	.	4e-\	.	4ee-\	.	4gg\	.
4E-\	.	.	.	.	.	.	.	.	.	.	.	.	.	.	4G/	.	4e-\	.	4ee-\	.	4gg\	.
.	.	.	(16f/LL	.	(16a-/LL	.	.	.	.	.	.	.	.	.	.	.	.	.	.	.	.	.
.	.	.	16g/JJ)	.	16b-/JJ)	.	.	.	.	.	.	.	.	.	.	.	.	.	.	.	.	.
!	!	!	!LO:SIC:s=(16a-LL	!	!	!	!	!	!	!	!	!	!	!	!	!	!	!	!	!	!	!
4E-\	.	.	16a-/LL	.	(16cc/LL	.	.	.	.	.	.	.	.	.	4G/	.	4e-\	.	4ee-\	.	4gg\	.
!	!	!	!LO:SIC:s=16g)	!	!	!	!	!	!	!	!	!	!	!	!	!	!	!	!	!	!	!
.	.	.	16g/	.	16b-/)	.	.	.	.	.	.	.	.	.	.	.	.	.	.	.	.	.
!	!	!	!LO:SIC:s=(16f	!	!	!	!	!	!	!	!	!	!	!	!	!	!	!	!	!	!	!
.	.	.	16f/	.	(16a-/	.	.	.	.	.	.	.	.	.	.	.	.	.	.	.	.	.
!	!	!	!LO:SIC:s=16e-JJ)	!	!	!	!	!	!	!	!	!	!	!	!	!	!	!	!	!	!	!
.	.	.	16e-/JJ	.	16g/JJ)	.	.	.	.	.	.	.	.	.	.	.	.	.	.	.	.	.
=4	=4	=4	=4	=4	=4	=4	=4	=4	=4	=4	=4	=4	=4	=4	=4	=4	=4	=4	=4	=4	=4	=4
!	!	!	!	!	!LO:SIC:s=(8.fL	!	!	!	!	!	!	!	!	!	!	!	!	!	!LO:TX:a:t=Solo:mod=	!	!LO:TX:a:t=Solo:mod=	!
4BB-/	x 7	.	(8.d/L	.	8.f/L	.	.	.	.	.	.	.	.	.	4B-/	.	4f\	.	4dd\	.	4ff\	.
.	.	.	32e-/LL	.	32g/LL	.	.	.	.	.	.	.	.	.	.	.	.	.	.	.	.	.
!	!	!	!	!	!LO:SIC:s=32a-JJJ)	!	!	!	!	!	!	!	!	!	!	!	!	!	!	!	!	!
.	.	.	32f/JJJ)	.	32a-/JJJ	.	.	.	.	.	.	.	.	.	.	.	.	.	.	.	.	.
4E-\	.	.	4e-/	.	4g/	.	.	.	.	.	.	.	.	.	4G/	.	4e-\	.	8ee-\L	.	8gg\L	.
.	.	.	.	.	.	.	.	.	.	.	.	.	.	.	.	.	.	.	8gg\	.	8bb-\	.
4r	.	.	4r	.	4r	.	.	.	.	.	.	.	.	.	4r	.	4r	.	8ff\	.	8aa-\	.
.	.	.	.	.	.	.	.	.	.	.	.	.	.	.	.	.	.	.	8ee-\J	.	8gg\J	.
=5	=5	=5	=5	=5	=5	=5	=5	=5	=5	=5	=5	=5	=5	=5	=5	=5	=5	=5	=5	=5	=5	=5
!	!	!	!	!	!	!	!	!	!	!	!	!	!	!	!	!LO:MO:null:mod=!LO&colon;DY&colon;ed=brack	!	!	!	!	!	!
!	!	!	!	!	!	!	!	!	!	!	!	!	!	!	!	!	!	!	!	!	!	!
!	!	!	!	!LO:DY:a:Bi:t=p.	!	!LO:DY:a:Bi:t=p.	!	!	!	!	!	!	!	!	!LO:TX:a:t=Solo:mod=	!LO:MO:null:mod=p	!LO:TX:a:t=Solo:mod=	!LO:DY:a:Bi:t=p.	!	!	!	!
4r	.	.	(8d/L	p	(8f/L	p	0.r	.	0.r	.	0.r	.	0.r	.	2.B-/	.	2.f\	p	8ee-\L	.	8gg\L	.
.	.	.	8f/)	.	8a-/)	.	.	.	.	.	.	.	.	.	.	.	.	.	8dd\J	.	8ff\J	.
!	!	!LO:DY:a:rj:Bi:t=p.	!	!	!	!	!	!	!	!	!	!	!	!	!	!	!	!	!	!	!LO:SIC:s=(4.bb-	!
4B-\	.	p	(8d/	.	(8f/	.	.	.	.	.	.	.	.	.	.	.	.	.	(4.dd\	.	4.bb-\	.
.	.	.	8f/)	.	8a-/)	.	.	.	.	.	.	.	.	.	.	.	.	.	.	.	.	.
4BB-/	.	.	(8d/	.	(8f/	.	.	.	.	.	.	.	.	.	.	.	.	.	.	.	.	.
!	!	!	!	!	!	!	!	!	!	!	!	!	!	!	!	!	!	!	!	!	!LO:SIC:s=8aa-)	!
.	.	.	8f/J)	.	8a-/J)	.	.	.	.	.	.	.	.	.	.	.	.	.	8ff\)	.	8aa-\	.
!	!	!	!LO:LB:g=original	!	!LO:LB:g=original	!	!	!	!	!	!	!	!	!	!	!	!	!	!	!	!	!
=6	=6	=6	=6	=6	=6	=6	=6	=6	=6	=6	=6	=6	=6	=6	=6	=6	=6	=6	=6	=6	=6	=6
!	!	!	!	!	!	!	!	!	!	!	!	!	!	!	!	!	!	!	!	!	!LO:SIC:s=(8aa-L	!
4r	.	.	(8e-/L	.	(8g/L	.	.	.	.	.	.	.	.	.	2.e-\	.	2.g\	.	(8ff\L	.	8aa-\L	.
!	!	!	!	!	!	!	!	!	!	!	!	!	!	!	!	!	!	!	!	!	!LO:SIC:s=8ggJ)	!
.	.	.	8g/)	.	8b-/)	.	.	.	.	.	.	.	.	.	.	.	.	.	8ee-\J)	.	8gg\J	.
4E-\	.	.	(8e-/	.	(8g/	.	.	.	.	.	.	.	.	.	.	.	.	.	4ee-\	.	4gg\	.
.	.	.	8g/)	.	8b-/)	.	.	.	.	.	.	.	.	.	.	.	.	.	.	.	.	.
4EE-/	.	.	(8e-/	.	(8g/	.	.	.	.	.	.	.	.	.	.	.	.	.	8r	.	8r	.
.	.	.	8g/J)	.	8b-/J)	.	.	.	.	.	.	.	.	.	.	.	.	.	8ee-\	.	8gg\	.
!	!	!	!	!	!	!	!	!	!	!	!	!	!	!	!	!	!	!	!LO:LB:g=original	!	!LO:LB:g=original	!
=7	=7	=7	=7	=7	=7	=7	=7	=7	=7	=7	=7	=7	=7	=7	=7	=7	=7	=7	=7	=7	=7	=7
!	!	!	!	!	!	!	!	!	!	!	!	!	!	!	!	!	!	!	!	!	!LO:SIC:s=(8bb-L	!
4AA-/	x 6	.	(8f/L	.	(8a-/L	.	.	.	.	.	.	.	.	.	2f\	.	2a-\	.	(8gg\L	.	8bb-\L	.
!	!	!	!	!	!	!	!	!	!	!	!	!	!	!	!	!	!	!	!	!	!LO:SIC:s=8aa-J)	!
.	.	.	8a-/)	.	8cc/)	.	.	.	.	.	.	.	.	.	.	.	.	.	8ff\J)	.	8aa-\J	.
!	!	!	!	!	!	!	!	!	!	!	!	!	!	!	!	!	!	!	!LO:SIC:s=4ff	!	!	!
4A-\	.	.	(8f/	.	(8a-/	.	.	.	.	.	.	.	.	.	.	.	.	.	[4ff\	.	4aa-\	.
.	.	.	8a-/)	.	8cc/)	.	.	.	.	.	.	.	.	.	.	.	.	.	.	.	.	.
!	!	!	!	!	!	!	!	!	!	!	!	!	!	!	!	!	!	!	!LO:SIC:s=(16ffLL	!	!	!
4An\	x 5	.	(8e-/	.	(8g/	.	.	.	.	.	.	.	.	.	4e-\	.	4g\	.	16ff\LL]	.	(16aa-\LL	.
!	!	!	!	!	!	!	!	!	!	!	!	!	!	!	!	!	!	!	!LO:SIC:s=16ee-)	!	!	!
.	.	.	.	.	.	.	.	.	.	.	.	.	.	.	.	.	.	.	(16ee-\	.	16gg\)	.
!	!	!	!	!	!	!	!	!	!	!	!	!	!	!	!	!	!	!	!LO:SIC:s=(16dd	!	!	!
.	.	.	8g/J)	.	8e-/J)	.	.	.	.	.	.	.	.	.	.	.	.	.	16dd\	.	(16ff\	.
.	.	.	.	.	.	.	.	.	.	.	.	.	.	.	.	.	.	.	16ee-\JJ)	.	16gg\JJ)	.
=8	=8	=8	=8	=8	=8	=8	=8	=8	=8	=8	=8	=8	=8	=8	=8	=8	=8	=8	=8	=8	=8	=8
!	!	!	!	!	!LO:MO:mod=(8.gL	!	!	!	!	!	!	!	!	!	!	!	!	!	!LO:SIC:s=(8.ee-L	!	!	!
4B-\	x 4	.	(8.e-/L	.	(8g/L	.	.	.	.	.	.	.	.	.	4e-\	.	4g\	.	8.ee-\L	.	(8.gg\L	.
!	!	!	!	!	!LO:MO:mod=.	!	!	!	!	!	!	!	!	!	!	!	!	!	!	!	!	!
.	.	.	.	.	16f/L	.	.	.	.	.	.	.	.	.	.	.	.	.	.	.	.	.
!	!	!	!	!	!LO:MO:mod=32fLL	!	!	!	!	!	!	!	!	!	!	!	!	!	!	!	!LO:SIC:s=32ffLL	!
.	.	.	32d/LL	.	16g/JJ)	.	.	.	.	.	.	.	.	.	.	.	.	.	32dd\LL	.	32ff\LL)	.
!	!	!	!	!	!LO:MO:null:mod=32gJJJ)	!	!	!	!	!	!	!	!	!	!	!	!	!	!LO:SIC:s=32ee-JJJ)	!	!LO:SIC:s=32ggJJJ)	!
.	.	.	32e-/JJJ)	.	.	.	.	.	.	.	.	.	.	.	.	.	.	.	32ee-\JJJ	.	32gg|\JJJ	.
!	!	!	!	!	!	!	!	!	!	!	!	!	!	!	!	!	!	!	!LO:SIC:s=4dd|	!	!LO:SIC:s=4ff|	!
8B-\L	x 3	.	4d/	.	4f/	.	.	.	.	.	.	.	.	.	4B-/	.	4f\	.	4dd\	.	4ff\	.
8A-X\	.	.	.	.	.	.	.	.	.	.	.	.	.	.	.	.	.	.	.	.	.	.
8G\	.	.	4r	.	4r	.	.	.	.	.	.	.	.	.	4r	.	4r	.	4r	.	4r	.
8F\J	.	.	.	.	.	.	.	.	.	.	.	.	.	.	.	.	.	.	.	.	.	.
!LO:LB:g=original	!	!	!	!	!	!	!	!	!	!	!	!	!	!	!	!	!	!	!	!	!	!
=9	=9	=9	=9	=9	=9	=9	=9	=9	=9	=9	=9	=9	=9	=9	=9	=9	=9	=9	=9	=9	=9	=9
!	!	!	!	!	!	!	!LO:MO:mod=!LO&colon;TX&colon;a&colon;i&colon;t=Solo	!	!	!	!	!	!	!	!	!	!	!	!	!	!	!
!	!	!LO:DY:a:Bi:t=p.	!	!LO:DY:a:Bi:t=p.	!	!LO:DY:a:Bi:t=p.	!null	!	!	!	!	!	!	!	!	!	!	!	!	!	!	!
4E-\	.	p	(8G/L	p	(8e-/L	p	2E-\	Lux	0.r	.	0.r	.	0.r	.	0.r	.	0.r	.	0.r	.	0.r	.
.	.	.	8e-/)	.	8g/)	.	.	.	.	.	.	.	.	.	.	.	.	.	.	.	.	.
4r	.	.	(8G/	.	(8e-/	.	.	.	.	.	.	.	.	.	.	.	.	.	.	.	.	.
.	.	.	8e-/)	.	8g/)	.	.	.	.	.	.	.	.	.	.	.	.	.	.	.	.	.
4r	.	.	(8G/	.	(8e-/	.	8G\L	ae-	.	.	.	.	.	.	.	.	.	.	.	.	.	.
.	.	.	8e-/J)	.	8g/J)	.	8E-\J	.	.	.	.	.	.	.	.	.	.	.	.	.	.	.
=10	=10	=10	=10	=10	=10	=10	=10	=10	=10	=10	=10	=10	=10	=10	=10	=10	=10	=10	=10	=10	=10	=10
*	*	*	*	*	*tremolo	*	*	*	*	*	*	*	*	*	*	*	*	*	*	*	*	*
!	!	!	!LO:SIC:s=(8dL	!	!	!	!	!	!	!	!	!	!	!	!	!	!	!	!	!	!	!
4B-\	.	.	8d/L	.	8f/L	.	4B-\	-ter-	.	.	.	.	.	.	.	.	.	.	.	.	.	.
!	!	!	!LO:SIC:s=8f)	!	!	!	!	!	!	!	!	!	!	!	!	!	!	!	!	!	!	!
.	.	.	8f/	.	8a-/	.	.	.	.	.	.	.	.	.	.	.	.	.	.	.	.	.
!	!	!	!LO:SIC:s=(8d	!	!	!	!	!	!	!	!	!	!	!	!	!	!	!	!	!	!	!
4r	.	.	8d/	.	8f/	.	4B-\	-na	.	.	.	.	.	.	.	.	.	.	.	.	.	.
!	!	!	!LO:SIC:s=8f)	!	!	!	!	!	!	!	!	!	!	!	!	!	!	!	!	!	!	!
.	.	.	8f/	.	8a-/	.	.	.	.	.	.	.	.	.	.	.	.	.	.	.	.	.
!	!	!	!LO:SIC:s=(8d	!	!	!	!	!	!	!	!	!	!	!	!	!	!	!	!	!	!	!
4r	.	.	8d/	.	8f/	.	4r	.	.	.	.	.	.	.	.	.	.	.	.	.	.	.
!	!	!	!LO:SIC:s=8fJ)	!	!	!	!	!	!	!	!	!	!	!	!	!	!	!	!	!	!	!
.	.	.	8f/J	.	8a-/J	.	.	.	.	.	.	.	.	.	.	.	.	.	.	.	.	.
*	*	*	*	*	*Xtremolo	*	*	*	*	*	*	*	*	*	*	*	*	*	*	*	*	*
=11	=11	=11	=11	=11	=11	=11	=11	=11	=11	=11	=11	=11	=11	=11	=11	=11	=11	=11	=11	=11	=11	=11
*	*	*	*tremolo	*	*	*	*	*	*	*	*	*	*	*	*	*	*	*	*	*	*	*
!	!	!	!	!	!LO:SIC:s=(8fL	!	!	!	!	!	!	!	!	!	!	!	!	!	!	!	!	!
4BB-/	.	.	8d/L	.	8f/L	.	2B-\	lu-	.	.	.	.	.	.	.	.	.	.	.	.	.	.
!	!	!	!	!	!LO:SIC:s=8a-)	!	!	!	!	!	!	!	!	!	!	!	!	!	!	!	!	!
.	.	.	8f/	.	8a-/	.	.	.	.	.	.	.	.	.	.	.	.	.	.	.	.	.
!	!	!	!	!	!LO:SIC:s=(8f	!	!	!	!	!	!	!	!	!	!	!	!	!	!	!	!	!
4r	.	.	8d/	.	8f/	.	.	.	.	.	.	.	.	.	.	.	.	.	.	.	.	.
!	!	!	!	!	!LO:SIC:s=8a-)	!	!	!	!	!	!	!	!	!	!	!	!	!	!	!	!	!
.	.	.	8f/	.	8a-/	.	.	.	.	.	.	.	.	.	.	.	.	.	.	.	.	.
!	!	!	!	!	!LO:SIC:s=(8f	!	!	!	!	!	!	!	!	!	!	!	!	!	!	!	!	!
4r	.	.	8d/	.	8f/	.	16c\LL	-ce-	.	.	.	.	.	.	.	.	.	.	.	.	.	.
.	.	.	.	.	.	.	16B-\JJ	.	.	.	.	.	.	.	.	.	.	.	.	.	.	.
!	!	!	!	!	!LO:SIC:s=8a-J)	!	!	!	!	!	!	!	!	!	!	!	!	!	!	!	!	!
.	.	.	8f/J	.	8a-/J	.	16c\LL	-at	.	.	.	.	.	.	.	.	.	.	.	.	.	.
.	.	.	.	.	.	.	16d\JJ	.	.	.	.	.	.	.	.	.	.	.	.	.	.	.
=12	=12	=12	=12	=12	=12	=12	=12	=12	=12	=12	=12	=12	=12	=12	=12	=12	=12	=12	=12	=12	=12	=12
!	!	!	!	!	!LO:SIC:s=(8gL	!	!	!	!	!	!	!	!	!	!	!	!	!	!	!	!	!
4E-\	.	.	8e-/L	.	8g/L	.	4e-\	e-	.	.	.	.	.	.	.	.	.	.	.	.	.	.
!	!	!	!	!	!LO:SIC:s=8b-)	!	!	!	!	!	!	!	!	!	!	!	!	!	!	!	!	!
.	.	.	8g/	.	8b-/	.	.	.	.	.	.	.	.	.	.	.	.	.	.	.	.	.
!	!	!	!	!	!LO:SIC:s=(8g	!	!	!	!	!	!	!	!	!	!	!	!	!	!	!	!	!
4r	.	.	8e-/	.	8g/	.	4E-\	-is	.	.	.	.	.	.	.	.	.	.	.	.	.	.
!	!	!	!	!	!LO:SIC:s=8b-)	!	!	!	!	!	!	!	!	!	!	!	!	!	!	!	!	!
.	.	.	8g/	.	8b-/	.	.	.	.	.	.	.	.	.	.	.	.	.	.	.	.	.
!	!	!	!	!	!LO:SIC:s=(8g	!	!	!	!	!	!	!	!	!	!	!	!	!	!	!	!	!
4r	.	.	8e-/	.	8g/	.	4r	.	.	.	.	.	.	.	.	.	.	.	.	.	.	.
!	!	!	!	!	!LO:SIC:s=8b-J)	!	!	!	!	!	!	!	!	!	!	!	!	!	!	!	!	!
.	.	.	8g/J	.	8b-/J	.	.	.	.	.	.	.	.	.	.	.	.	.	.	.	.	.
!	!	!	!	!	!LO:LB:g=original	!	!	!	!	!	!	!	!	!	!	!	!	!	!	!	!	!
=13	=13	=13	=13	=13	=13	=13	=13	=13	=13	=13	=13	=13	=13	=13	=13	=13	=13	=13	=13	=13	=13	=13
*	*	*	*	*	*tremolo	*	*	*	*	*	*	*	*	*	*	*	*	*	*	*	*	*
!	!	!	!	!	!	!	!	!	!LO:N:vis=0	!	!LO:N:vis=0	!	!LO:N:vis=0	!	!LO:N:vis=0	!	!LO:N:vis=0	!	!LO:N:vis=0	!	!LO:N:vis=0	!
4BB-/	.	.	8d/L	.	8f/L	.	[2B-\	Lux	1.r	.	1.r	.	1.r	.	1.r	.	1.r	.	1.r	.	1.r	.
.	.	.	8f/	.	8a-/	.	.	.	.	.	.	.	.	.	.	.	.	.	.	.	.	.
4r	.	.	8d/	.	8f/	.	.	.	.	.	.	.	.	.	.	.	.	.	.	.	.	.
.	.	.	8f/	.	8a-/	.	.	.	.	.	.	.	.	.	.	.	.	.	.	.	.	.
4r	.	.	8d/	.	8f/	.	16B-\LL]	.	.	.	.	.	.	.	.	.	.	.	.	.	.	.
.	.	.	.	.	.	.	16c\JJ	.	.	.	.	.	.	.	.	.	.	.	.	.	.	.
.	.	.	8f/J	.	8a-/J	.	16B-\LL	ae-	.	.	.	.	.	.	.	.	.	.	.	.	.	.
.	.	.	.	.	.	.	16A-\JJ	.	.	.	.	.	.	.	.	.	.	.	.	.	.	.
!	!	!	!LO:LB:g=original	!	!	!	!	!	!	!	!	!	!	!	!	!	!	!	!	!	!	!
=14	=14	=14	=14	=14	=14	=14	=14	=14	=14	=14	=14	=14	=14	=14	=14	=14	=14	=14	=14	=14	=14	=14
4E-\	.	.	8e-/L	.	8g/L	.	8A-\L	-ter-	.	.	.	.	.	.	.	.	.	.	.	.	.	.
.	.	.	8g/	.	8b-/	.	8G\J	.	.	.	.	.	.	.	.	.	.	.	.	.	.	.
4r	.	.	8e-/	.	8g/	.	4G\	-na	.	.	.	.	.	.	.	.	.	.	.	.	.	.
.	.	.	8g/	.	8b-/	.	.	.	.	.	.	.	.	.	.	.	.	.	.	.	.	.
!	!	!	!	!	!	!	!LO:LB:g=original	!	!	!	!	!	!	!	!	!	!	!	!	!	!	!
4r	.	.	8e-/	.	8g/	.	8r	.	.	.	.	.	.	.	.	.	.	.	.	.	.	.
.	.	.	8g/J	.	8b-/J	.	8G\	lu-	.	.	.	.	.	.	.	.	.	.	.	.	.	.
*	*	*	*Xtremolo	*	*Xtremolo	*	*	*	*	*	*	*	*	*	*	*	*	*	*	*	*	*
=15	=15	=15	=15	=15	=15	=15	=15	=15	=15	=15	=15	=15	=15	=15	=15	=15	=15	=15	=15	=15	=15	=15
!	!	!	!	!	!LO:SIC:s=(8anL	!	!	!	!	!	!	!	!	!	!	!	!	!	!	!	!	!
2.C/	6\_ 3_	.	(8f/L	.	8an\L	.	8An\	-ce-	2.r	.	2.r	.	2.r	.	2.r	.	2.r	.	2.r	.	2.r	.
!	!	!	!	!	!LO:SIC:s=8cc)	!	!	!	!	!	!	!	!	!	!	!	!	!	!	!	!	!
.	.	.	8e-/)	.	8cc\	.	8A\	-at	.	.	.	.	.	.	.	.	.	.	.	.	.	.
!	!	!	!	!	!LO:SIC:s=(8a	!	!	!	!	!	!	!	!	!	!	!	!	!	!	!	!	!
.	.	.	(8f/	.	8a\	.	4A\	e-	.	.	.	.	.	.	.	.	.	.	.	.	.	.
!	!	!	!	!	!LO:SIC:s=8cc)	!	!	!	!	!	!	!	!	!	!	!	!	!	!	!	!	!
.	.	.	8e-/)	.	8cc\	.	.	.	.	.	.	.	.	.	.	.	.	.	.	.	.	.
!	!	!	!	!	!LO:SIC:s=(8a	!	!	!	!	!	!	!	!	!	!	!	!	!	!	!	!	!
.	.	.	(8f/	.	8a\	.	4A\	-is	.	.	.	.	.	.	.	.	.	.	.	.	.	.
!	!	!	!	!	!LO:SIC:s=8ccJ)	!	!	!	!	!	!	!	!	!	!	!	!	!	!	!	!	!
.	.	.	8e-/J)	.	8cc\J	.	.	.	.	.	.	.	.	.	.	.	.	.	.	.	.	.
=16	=16	=16	=16	=16	=16	=16	=16	=16	=16	=16	=16	=16	=16	=16	=16	=16	=16	=16	=16	=16	=16	=16
4BB-/	x x	.	4d/	.	4b-/	.	8B-\	Do-	2.r;	.	2.r;	.	2.r;	.	2.r;	.	2.r;	.	2.r;	.	2.r;	.
.	.	.	.	.	.	.	8B-\	-mi-	.	.	.	.	.	.	.	.	.	.	.	.	.	.
!LO:SIC:s=4BB-;	!	!	!	!	!	!	!	!	!	!	!	!	!	!	!	!	!	!	!	!	!	!
4BB-/	.	.	4d;/	.	4f;/	.	4B-;\	-ne	.	.	.	.	.	.	.	.	.	.	.	.	.	.
!LO:SIC:s=4r	!	!	!	!	!	!	!	!	!	!	!	!	!	!	!	!	!	!	!	!	!	!
4r;	.	.	4r	.	4r	.	4r	.	.	.	.	.	.	.	.	.	.	.	.	.	.	.
!	!	!	!	!	!	!	!	!	!	!	!	!	!	!	!	!	!	!	!LO:TX:b:i:t=Verte:mod=	!	!	!
!	!	!	!	!	!	!	!	!	!	!	!	!	!	!	!LO:LB:g=original	!	!LO:LB:g=original	!	!LO:PB:g=original	!	!	!
=17	=17	=17	=17	=17	=17	=17	=17	=17	=17	=17	=17	=17	=17	=17	=17	=17	=17	=17	=17	=17	=17	=17
!LO:MO:mod=!LO&colon;TX&colon;a&colon;i&colon;t=Tutti	!	!	!	!	!	!	!	!	!	!	!	!	!	!	!	!	!	!	!	!	!	!
!LO:TX:t=Tutti	!	!	!	!LO:DY:a:Bi:t=for	!	!LO:DY:a:Bi:t=for	!	!	!	!	!	!	!	!	!	!LO:DY:a:Bi:t=f.	!	!LO:DY:a:Bi:t=for	!	!LO:DY:a:Bi:t=for	!	!LO:DY:a:Bi:t=f.
4E-\	.	.	(8.g/L	f	(8.b-/L	f	4E-\	Cum	4e-\	Cum	4g\	Cum	4b-\	Cum	4E-/	f	4e-\	f	4b-\	f	4gg\	f
.	.	.	16f/Jk)	.	16a-X/Jk)	.	.	.	.	.	.	.	.	.	.	.	.	.	.	.	.	.
!	!	!	!	!	!	!	!	!LO:MO:mod=san-	!	!	!	!LO:MO:mod=san-	!	!LO:MO:mod=san-	!	!	!	!	!	!	!	!
4E-\	.	.	8e-|/L	.	8g|/L	.	4E-\	San-	4e-\	ſan-	4g\	San-	4b-\	San-	4E-/	.	4e-\	.	4b-\	.	4gg\	.
.	.	.	8e-|/	.	8g|/	.	.	.	.	.	.	.	.	.	.	.	.	.	.	.	.	.
4E-\	.	.	8f|/	.	8a-|/	.	4E-\	-ctis	4e-\	-ctis	4g\	-ctis	4b-\	-ctis	4E-/	.	4e-\	.	4b-\	.	4gg\	.
.	.	.	8g|/J	.	8b-|/J	.	.	.	.	.	.	.	.	.	.	.	.	.	.	.	.	.
=18	=18	=18	=18	=18	=18	=18	=18	=18	=18	=18	=18	=18	=18	=18	=18	=18	=18	=18	=18	=18	=18	=18
4E-\	x 4	.	(8.a-/L	.	(8.cc\L	.	4E-\	tu-	4e-\	tu-	4a-\	tu-	4cc\	tu-	4E-/	.	4e-\	.	4cc\	.	4aa-\	.
.	.	.	32g/LL	.	32b-\LL	.	.	.	.	.	.	.	.	.	.	.	.	.	.	.	.	.
.	.	.	32a-/JJJ)	.	32cc\JJJ)	.	.	.	.	.	.	.	.	.	.	.	.	.	.	.	.	.
4E-\	x 3	.	8g|/L	.	8b-|\L	.	4E-\	-is	4e-\	-is	4g\	-is	4b-\	-is	4E-/	.	4e-\	.	4b-\	.	4gg\	.
.	.	.	8g|/	.	8ee-|\	.	.	.	.	.	.	.	.	.	.	.	.	.	.	.	.	.
4r	.	.	8f|/	.	8dd|\	.	4r	.	4r	.	4r	.	4r	.	4r	.	4r	.	4r	.	4r	.
.	.	.	8a-|/J	.	8cc|\J	.	.	.	.	.	.	.	.	.	.	.	.	.	.	.	.	.
!LO:LB:g=original	!	!	!	!	!	!	!	!	!	!	!	!	!	!	!	!	!	!	!	!	!	!
=19	=19	=19	=19	=19	=19	=19	=19	=19	=19	=19	=19	=19	=19	=19	=19	=19	=19	=19	=19	=19	=19	=19
4E-\	.	.	(4.g/	.	(4.b-/	.	2E-\	in	2B-\	in	2g\	in	2ee-\	in	4G/	.	4e-\	.	4b-\	.	4gg\	.
4E-\	.	.	.	.	.	.	.	.	.	.	.	.	.	.	4G/	.	4e-\	.	4ee-\	.	4gg\	.
.	.	.	16f/LL	.	16a-/LL	.	.	.	.	.	.	.	.	.	.	.	.	.	.	.	.	.
.	.	.	16g/JJ)	.	16b-/JJ)	.	.	.	.	.	.	.	.	.	.	.	.	.	.	.	.	.
4E-\	.	.	16a-/LL	.	16cc/LL	.	4E-\	ae-	4B-\	ae-	4g\	ae-	4ee-\	ae-	4G/	.	4e-\	.	4ee-\	.	4gg\	.
.	.	.	16g/	.	16b-/	.	.	.	.	.	.	.	.	.	.	.	.	.	.	.	.	.
.	.	.	16f/	.	16a-/	.	.	.	.	.	.	.	.	.	.	.	.	.	.	.	.	.
.	.	.	16e-/JJ	.	16g/JJ	.	.	.	.	.	.	.	.	.	.	.	.	.	.	.	.	.
!	!	!	!	!	!LO:LB:g=original	!	!	!	!	!	!	!	!	!	!	!	!	!	!	!	!	!
=20	=20	=20	=20	=20	=20	=20	=20	=20	=20	=20	=20	=20	=20	=20	=20	=20	=20	=20	=20	=20	=20	=20
4BB-/	x 7	.	8.d/L	.	8.f/L	.	4B-\	-ter-	4B-\	-ter-	4f\	-ter-	4dd\	-ter-	4B-/	.	4f\	.	4dd\	.	4ff\	.
.	.	.	32e-/LL	.	32g/LL	.	.	.	.	.	.	.	.	.	.	.	.	.	.	.	.	.
.	.	.	32f/JJJ	.	32a-/JJJ	.	.	.	.	.	.	.	.	.	.	.	.	.	.	.	.	.
4E-\	.	.	8e-/L	.	8g/L	.	4E-\	-num	4B-\	-num	4g\	-num	4ee-\	-num	4G/	.	4e-\	.	4ee-\	.	4gg\	.
.	.	.	8e-/J	.	8g/J	.	.	.	.	.	.	.	.	.	.	.	.	.	.	.	.	.
!	!	!	!LO:LB:g=original	!	!	!	!	!	!	!	!	!	!	!	!	!	!	!	!	!	!	!
4r	.	.	16e-/LL	.	16g/LL	.	4r	.	4r	.	4r	.	4r	.	4r	.	4r	.	4r	.	4r	.
.	.	.	16d/	.	16f/	.	.	.	.	.	.	.	.	.	.	.	.	.	.	.	.	.
.	.	.	16e-/	.	16g/	.	.	.	.	.	.	.	.	.	.	.	.	.	.	.	.	.
.	.	.	16f/JJ	.	16a-/JJ	.	.	.	.	.	.	.	.	.	.	.	.	.	.	.	.	.
!	!	!	!	!	!	!	!	!	!	!	!	!	!	!	!	!	!	!	!	!	!LO:LB:g=original	!
=21	=21	=21	=21	=21	=21	=21	=21	=21	=21	=21	=21	=21	=21	=21	=21	=21	=21	=21	=21	=21	=21	=21
4E-\	.	.	4g/	.	(8b-\L	.	2E-\	qui-	2B-\	qui-	2g\	qui-	2ee-\	qui-	2.e-\	.	2.g\	.	2.ee-\	.	2.gg\	.
.	.	.	.	.	8dd\J)	.	.	.	.	.	.	.	.	.	.	.	.	.	.	.	.	.
4E-\	.	.	8r	.	8r	.	.	.	.	.	.	.	.	.	.	.	.	.	.	.	.	.
.	.	.	8g/L	.	8b-/L	.	.	.	.	.	.	.	.	.	.	.	.	.	.	.	.	.
4E-\	.	.	8f/	.	8a-/	.	4E-\	-a	4B-\	-a	4g\	-a	4ee-\	-a	.	.	.	.	.	.	.	.
!	!	!	!LO:SIC:v:s=8e-/J	!	!	!	!	!	!	!	!	!	!	!	!	!	!	!	!	!	!	!
.	.	.	8d/J	.	8g/J	.	.	.	.	.	.	.	.	.	.	.	.	.	.	.	.	.
!	!	!	!	!	!	!	!LO:LB:g=original	!	!	!	!LO:LB:g=original	!	!LO:LB:g=original	!	!	!	!	!	!	!	!	!
=22	=22	=22	=22	=22	=22	=22	=22	=22	=22	=22	=22	=22	=22	=22	=22	=22	=22	=22	=22	=22	=22	=22
4A-\	x 6_	.	8f/L	.	8a-/L	.	2A-\	pi-	2c\	pi-	2a-\	pi-	2ff\	pi-	2.f\	.	2.a-\	.	2.ff\	.	2.aa-\	.
.	.	.	8a-/J	.	8cc/J	.	.	.	.	.	.	.	.	.	.	.	.	.	.	.	.	.
4A-\	.	.	8r	.	8r	.	.	.	.	.	.	.	.	.	.	.	.	.	.	.	.	.
.	.	.	8a-/L	.	8cc/L	.	.	.	.	.	.	.	.	.	.	.	.	.	.	.	.	.
4A-\	.	.	8g/	.	8b-/	.	4A-\	-us	4c\	-us	4a-\	-us	4ff\	-us	.	.	.	.	.	.	.	.
.	.	.	8f/J	.	8a-/J	.	.	.	.	.	.	.	.	.	.	.	.	.	.	.	.	.
!	!	!	!	!	!	!	!	!	!LO:LB:g=original	!	!	!	!	!	!	!	!	!	!	!	!	!
=23	=23	=23	=23	=23	=23	=23	=23	=23	=23	=23	=23	=23	=23	=23	=23	=23	=23	=23	=23	=23	=23	=23
*	*	*	*	*	*	*	*	*	*	*ij	*	*ij	*	*ij	*	*	*	*	*	*	*	*
4B-\	x 3_	.	8e-/L	.	8g/L	.	2B-\	qui-	2c\	qui-	2f\	qui-	2dd\	qui-	2.B-/	.	2.f\	.	2.dd\	.	2.ff\	.
.	.	.	8d/J	.	8f/J	.	.	.	.	.	.	.	.	.	.	.	.	.	.	.	.	.
4B-\	.	.	8r	.	8r	.	.	.	.	.	.	.	.	.	.	.	.	.	.	.	.	.
.	.	.	8d/L	.	8f/L	.	.	.	.	.	.	.	.	.	.	.	.	.	.	.	.	.
4B-\	.	.	8c/	.	8e-/	.	4B-\	-a	4c\	-a	4f\	-a	4dd\	-a	.	.	.	.	.	.	.	.
.	.	.	8d/J	.	8f/J	.	.	.	.	.	.	.	.	.	.	.	.	.	.	.	.	.
=24	=24	=24	=24	=24	=24	=24	=24	=24	=24	=24	=24	=24	=24	=24	=24	=24	=24	=24	=24	=24	=24	=24
4E-\	x x	.	8d/L	.	8f/L	.	8E-\	pi-	8B-\	pi-	8g\	pi-	8ee-\	pi-	4G/	.	4e-\	.	4ee-\	.	4gg\	.
.	.	.	8e-/J	.	8g/J	.	8E-\	-us	8B-\	-us	8g\	-us	8ee-\	-us	.	.	.	.	.	.	.	.
*	*	*	*	*	*	*	*	*	*	*Xij	*	*Xij	*	*Xij	*	*	*	*	*	*	*	*
!	!	!	!	!	!	!	!	!LO:MO:mod=es	!	!	!	!	!	!	!	!	!	!	!	!	!	!
4E-\	.	.	8r	.	8r	.	4E-\	est	4B-\	eſ	4g\	es	4ee-\	es	4G/	.	4e-\	.	4ee-\	.	4gg\	.
!	!	!	!LO:MO:mod=!LO&colon;TX&colon;a&colon;i&colon;t=Solo	!	!LO:MO:mod=!LO&colon;TX&colon;a&colon;i&colon;t=Solo	!	!	!	!	!	!	!	!	!	!	!	!	!	!	!	!	!
!	!	!	!LO:TX:a:t=Solo	!	!LO:TX:a:t=Solo	!	!	!	!	!	!	!	!	!	!	!	!	!	!	!	!	!
.	.	.	8e-|/L	.	8g|/L	.	.	.	.	.	.	.	.	.	.	.	.	.	.	.	.	.
4r	.	.	8f|/	.	8a-|/	.	4r	.	4r	.	4r	.	4r	.	4r	.	4r	.	4r	.	4r	.
.	.	.	8g|/J	.	8b-|/J	.	.	.	.	.	.	.	.	.	.	.	.	.	.	.	.	.
=25	=25	=25	=25	=25	=25	=25	=25	=25	=25	=25	=25	=25	=25	=25	=25	=25	=25	=25	=25	=25	=25	=25
!	!	!	!	!	!	!	!	!	!	!	!	!	!LO:TX:b:t=alt solo:mod=	!	!	!	!	!	!	!	!	!
!LO:N:vis=0	!	!	!	!	!	!	!LO:TX:b:t=alto Solo:mod=	!	!	!	!	!	!	!	!LO:N:vis=0	!	!LO:N:vis=0	!	!LO:N:vis=0	!	!LO:N:vis=0	!
1.r	.	.	(8.a-/L	.	(8.cc\L	.	0.r	.	0.r	.	0.r	.	0.r	.	1.r	.	1.r	.	1.r	.	1.r	.
.	.	.	16f/Jk)	.	16dd\Jk)	.	.	.	.	.	.	.	.	.	.	.	.	.	.	.	.	.
!	!	!	!	!	!LO:LB:g=original	!	!	!	!	!	!	!	!	!	!	!	!	!	!	!	!	!
.	.	.	8g|/L	.	8ee-|\L	.	.	.	.	.	.	.	.	.	.	.	.	.	.	.	.	.
.	.	.	8g|/	.	8b-|\	.	.	.	.	.	.	.	.	.	.	.	.	.	.	.	.	.
.	.	.	8f|/	.	8a-|\	.	.	.	.	.	.	.	.	.	.	.	.	.	.	.	.	.
.	.	.	8e-|/J	.	8g|\J	.	.	.	.	.	.	.	.	.	.	.	.	.	.	.	.	.
=26	=26	=26	=26	=26	=26	=26	=26	=26	=26	=26	=26	=26	=26	=26	=26	=26	=26	=26	=26	=26	=26	=26
.	.	.	8d|/L	.	8f|/L	.	.	.	.	.	.	.	.	.	.	.	.	.	.	.	.	.
!	!	!	!	!	!LO:SIC:s=8g|	!	!	!	!	!	!	!	!	!	!	!	!	!	!	!	!	!
.	.	.	8e-|/	.	8g|/J	.	.	.	.	.	.	.	.	.	.	.	.	.	.	.	.	.
!	!	!	!	!	!LO:SIC:s=8a-|	!	!	!	!	!	!	!	!	!	!	!	!	!	!	!	!	!
.	.	.	8f|/	.	8a-|\L	.	.	.	.	.	.	.	.	.	.	.	.	.	.	.	.	.
.	.	.	8g|/	.	8b-|\	.	.	.	.	.	.	.	.	.	.	.	.	.	.	.	.	.
.	.	.	8a-|/	.	8cc|\	.	.	.	.	.	.	.	.	.	.	.	.	.	.	.	.	.
.	.	.	8f|/J	.	8dd|\J	.	.	.	.	.	.	.	.	.	.	.	.	.	.	.	.	.
!	!	!	!LO:TX:b:i:t=VerteCito:mod=	!	!	!	!	!	!	!	!	!	!	!	!	!	!	!	!	!	!	!
!	!	!	!LO:PB:g=original	!	!	!	!	!	!	!	!	!	!	!	!	!	!	!	!	!	!	!
=27	=27	=27	=27	=27	=27	=27	=27	=27	=27	=27	=27	=27	=27	=27	=27	=27	=27	=27	=27	=27	=27	=27
!	!	!	!	!	!	!	!	!	!	!	!	!	!	!	!	!LO:MO:mod=!null:null	!	!LO:MO:mod=!null:null	!	!	!	!
!	!	!	!	!	!LO:SIC:s=8ee-|	!	!	!	!	!	!	!	!	!	!	!LO:HP:t=Cres	!	!LO:HP:b:t=Cres	!	!	!	!
8r	.	.	8g|/	.	8ee-\	.	.	.	.	.	.	.	.	.	2.e-\	<	2.g\	<	2.ee-\	.	2.gg\	.
!	!	!LO:MO:mod=!null:null	!LO:MO:mod=!LO&colon;TX&colon;a&colon;i&colon;t=smorzando	!	!LO:MO:mod=!LO&colon;TX&colon;a&colon;i&colon;t=smorzando	!	!	!	!	!	!	!	!	!	!	!	!	!	!	!	!	!
!	!	!LO:HP:b:t=cres	!LO:TX:a:t=ſmorz&colon;	!	!LO:TX:a:t=ſmorz&colon;	!	!	!	!	!	!	!	!	!	!	!	!	!	!	!	!	!
8E-/L	x 3_	<	4e-/	.	4g/	.	.	.	.	.	.	.	.	.	.	.	.	.	.	.	.	.
8D/	.	.	.	.	.	.	.	.	.	.	.	.	.	.	.	.	.	.	.	.	.	.
8C/	.	.	4e-/	.	4g/	.	.	.	.	.	.	.	.	.	.	.	.	.	.	.	.	.
8BB-/	.	.	.	.	.	.	.	.	.	.	.	.	.	.	.	.	.	.	.	.	.	.
8AAn/J	.	.	8e-/	.	8g/	.	.	.	.	.	.	.	.	.	.	.	.	.	.	.	.	.
!	!	!	!	!	!	!	!	!	!	!	!	!	!	!	!	!	!	!	!LO:LB:g=original	!	!	!
=28	=28	=28	=28	=28	=28	=28	=28	=28	=28	=28	=28	=28	=28	=28	=28	=28	=28	=28	=28	=28	=28	=28
!	!	!	!	!	!LO:MO:mod=(8.gL	!	!	!	!	!	!	!	!	!	!	!LO:DY:b:Bi:t=f.	!	!LO:DY:b:Bi:t=for	!	!	!	!
4BB-/	x 4	.	(8.e-/L	.	8g/L	.	.	.	.	.	.	.	.	.	4e-\	f	4g\	f	4ee-\	.	4gg\	.
!	!	!	!	!	!LO:MO:mod=.	!	!	!	!	!	!	!	!	!	!	!	!	!	!	!	!	!
.	.	.	.	.	16f/L	.	.	.	.	.	.	.	.	.	.	.	.	.	.	.	.	.
!	!	!	!	!	!LO:MO:mod=32fLL	!	!	!	!	!	!	!	!	!	!	!	!	!	!	!	!	!
.	.	.	32d/LL	.	16g/JJ	.	.	.	.	.	.	.	.	.	.	.	.	.	.	.	.	.
!	!	!	!	!	!LO:MO:null:mod=32gJJJ)	!	!	!	!	!	!	!	!	!	!	!	!	!	!	!	!	!
.	.	.	32e-/JJJ)	.	.	.	.	.	.	.	.	.	.	.	.	.	.	.	.	.	.	.
4BB-/	x 3	.	4d/	.	4f/	.	.	.	.	.	.	.	.	.	4B-/	.	4f\	.	4dd\	.	4ff\	.
4r	.	.	4r	.	4r	.	.	.	.	.	.	.	.	.	4r	.	4r	.	4r	.	4r	.
!LO:LB:g=original	!	!	!	!	!	!	!	!	!	!	!	!	!	!	!LO:LB:g=original	!	!LO:LB:g=original	!	!	!	!	!
=29	=29	=29	=29	=29	=29	=29	=29	=29	=29	=29	=29	=29	=29	=29	=29	=29	=29	=29	=29	=29	=29	=29
!	!	!	!	!	!	!	!	!	!LO:MO:mod=!LO&colon;TX&colon;a&colon;i&colon;t=Solo	!	!LO:MO:mod=!LO&colon;TX&colon;a&colon;i&colon;t=Solo	!	!	!	!	!	!	!	!LO:MO:mod=!LO&colon;TX&colon;a&colon;i&colon;t=Solo	!	!LO:MO:mod=!LO&colon;TX&colon;a&colon;i&colon;t=Solo	!
!	!	!LO:DY:a:Bi:t=p.	!	!	!	!	!	!	!LO:TX:a:rj:t=Solo	!	!LO:TX:a:rj:t=Solo	!	!	!	!LO:TX:a:t=Solo:mod=	!LO:DY:a:Bi:t=p.	!LO:TX:a:t=Solo:mod=	!LO:DY:a:Bi:t=p.	!LO:TX:a:rj:t=Solo	!	!LO:TX:a:rj:t=Solo	!
4E-\	.	p	2.r	.	2.r	.	0.r	.	(4g\	Re-	(4b-\	Re-	0.r	.	2.G/	p	2.e-\	p	4gg\	.	4bb-\	.
!	!	!	!	!	!	!	!	!	!	!	!	!	!	!	!	!	!	!	!LO:SIC:s=(16ee-LL	!	!LO:SIC:s=(16ggLL	!
4E-\	.	.	.	.	.	.	.	.	16e-\LL)	.	16g\LL)	.	.	.	.	.	.	.	16ee-\LL	.	16gg\LL	.
!	!	!	!	!	!	!	!	!	!	!LO:MO:mod=.	!	!LO:MO:mod=.	!	!	!	!	!	!	!LO:SIC:s=16dd	!	!	!
.	.	.	.	.	.	.	.	.	16d\JJ	-qui-	16f\JJ	-qui-	.	.	.	.	.	.	(16dd\	.	16ff\	.
!	!	!	!	!	!	!	!	!	!	!LO:MO:mod=-qui	!	!LO:MO:mod=-qui-	!	!	!	!	!	!	!	!	!	!
.	.	.	.	.	.	.	.	.	16e-\LL	-em	16g\LL	-em	.	.	.	.	.	.	16ee-\	.	16gg\	.
!	!	!	!	!	!	!	!	!	!	!	!	!	!	!	!	!	!	!	!	!	!LO:SIC:s=16aa-JJ)	!
.	.	.	.	.	.	.	.	.	16f\JJ	.	16a-\JJ	.	.	.	.	.	.	.	16ff\JJ)	.	16aa-\JJ	.
!	!	!	!	!	!	!	!	!	!	!LO:MO:null:mod=-em	!	!LO:MO:null:mod=-em	!	!	!	!	!	!	!	!	!LO:SIC:s=8bb-L|	!
4E-\	.	.	.	.	.	.	.	.	8g\	.	8b-\	.	.	.	.	.	.	.	8gg|\L	.	8bb-'\L	.
!	!	!	!	!	!	!	!	!	!	!	!	!	!	!	!	!	!	!	!	!	!LO:SIC:s=8bb-J|	!
.	.	.	.	.	.	.	.	.	8g\	ae-	8b-\	ae-	.	.	.	.	.	.	8gg|\J	.	8bb-'\J	.
!	!	!	!	!	!LO:TX:b:i:t=Verte Cito:mod=	!	!	!	!	!	!	!	!	!	!	!	!	!	!	!	!	!
!	!	!	!	!	!LO:PB:g=original	!	!	!	!	!	!	!	!	!	!	!	!	!	!	!	!	!
=30	=30	=30	=30	=30	=30	=30	=30	=30	=30	=30	=30	=30	=30	=30	=30	=30	=30	=30	=30	=30	=30	=30
!	!	!	!	!LO:DY:a:Bi:t=p.	!	!LO:DY:a:Bi:t=p.	!	!	!	!	!	!	!	!	!	!	!	!	!	!	!	!
4E-\	.	.	4g/	p	4b-/	p	.	.	8g\L	-ter-	8b-\L	-ter-	.	.	4G/	.	4e-\	.	(8gg\L	.	(8bb-\L	.
.	.	.	.	.	.	.	.	.	8e-\J	.	8g\J	.	.	.	.	.	.	.	8ee-\J)	.	8gg\J)	.
!	!	!	!LO:SIC:s=(8a-L	!	!	!	!	!	!	!	!	!	!	!	!	!	!	!	!	!	!LO:SIC:s=4gg|	!
4EE-/	.	.	8a-/L	.	(8cc/L	.	.	.	4e-\	-nam	4g\	-nam	.	.	4G/	.	4e-\	.	4ee-|\	.	4gg\	.
!	!	!	!LO:SIC:s=8g)	!	!	!	!	!	!	!	!	!	!	!	!	!	!	!	!	!	!	!
.	.	.	8g/	.	8b-/)	.	.	.	.	.	.	.	.	.	.	.	.	.	.	.	.	.
!	!	!	!LO:SIC:s=(8f	!	!	!	!	!	!	!	!	!	!	!	!	!	!	!	!	!	!	!
4r	.	.	8f/	.	(8a-/	.	.	.	4r	.	4r	.	.	.	4r	.	4r	.	4r	.	4r	.
!	!	!	!LO:SIC:s=8e-J)	!	!	!	!	!	!	!	!	!	!	!	!	!	!	!	!	!	!	!
.	.	.	8e-/J	.	8g/J)	.	.	.	.	.	.	.	.	.	.	.	.	.	.	.	.	.
!	!	!	!	!	!	!	!	!	!	!	!	!	!	!	!	!	!	!	!	!	!LO:LB:g=original	!
=31	=31	=31	=31	=31	=31	=31	=31	=31	=31	=31	=31	=31	=31	=31	=31	=31	=31	=31	=31	=31	=31	=31
4BB-/	.	.	4d/	.	4f/	.	.	.	(4f\	Re-	(4a-\	Re-	.	.	2.B-/	.	2.f\	.	4ff\	.	4aa-\	.
!	!	!	!	!	!	!	!	!	!	!	!	!	!	!	!	!	!	!	!LO:SIC:s=(16ddLL	!	!LO:SIC:s=(16ffLL	!
4BB-/	.	.	4r	.	4r	.	.	.	16d\LL)	.	16f\LL)	.	.	.	.	.	.	.	16dd\LL	.	16ff\LL	.
!	!	!	!	!	!	!	!	!	!	!LO:MO:mod=.	!	!	!	!	!	!	!	!	!LO:SIC:s=16cc	!	!LO:SIC:s=16ee-	!
.	.	.	.	.	.	.	.	.	16c\JJ	-qui-	16e-\JJ	.	.	.	.	.	.	.	(16cc\	.	(16ee-\	.
!	!	!	!	!	!	!	!	!	!	!LO:MO:mod=-qui-	!	!	!	!	!	!	!	!	!	!	!LO:SIC:s=16ff	!
.	.	.	.	.	.	.	.	.	16d\LL	-em	16f\LL	-qui-	.	.	.	.	.	.	16dd\	.	16ff\)	.
!	!	!	!	!	!	!	!	!	!	!	!	!	!	!	!	!	!	!	!	!	!LO:SIC:s=16ggJJ)	!
.	.	.	.	.	.	.	.	.	16e-\JJ	.	16g\JJ	.	.	.	.	.	.	.	16ee-\JJ)	.	16gg\JJ	.
!	!	!	!	!	!	!	!	!	!	!LO:MO:null:mod=-em	!LO:LB:g=original	!	!	!	!	!	!	!	!	!	!	!
4BB-/	.	.	4r	.	4r	.	.	.	8f\	.	8a-\	-em	.	.	.	.	.	.	8ff|\L	.	8aa-|\L	.
.	.	.	.	.	.	.	.	.	8f\	ae-	8a-\	ae-	.	.	.	.	.	.	8ff|\J	.	8aa-|\J	.
!	!	!	!	!	!	!	!	!	!LO:LB:g=original	!	!	!	!	!	!	!	!	!	!	!	!	!
=32	=32	=32	=32	=32	=32	=32	=32	=32	=32	=32	=32	=32	=32	=32	=32	=32	=32	=32	=32	=32	=32	=32
4B-\	.	.	4f/	.	4a-/	.	.	.	8f\L	-ter-	8a-\L	-ter-	.	.	4B-/	.	4f\	.	(8ff\L	.	(8aa-\L	.
.	.	.	.	.	.	.	.	.	8d\J	.	8f\J	.	.	.	.	.	.	.	8dd\J)	.	8ff\J)	.
!	!	!	!LO:SIC:s=(8gL	!	!	!	!	!	!	!	!	!	!	!	!	!	!	!	!	!	!	!
4BB-/	.	.	8g/L	.	(8b-/L	.	.	.	4d\	-nam	4f\	-nam	.	.	4B-/	.	4f\	.	4dd|\	.	4ff|\	.
!	!	!	!LO:SIC:s=8f)	!	!	!	!	!	!	!	!	!	!	!	!	!	!	!	!	!	!	!
.	.	.	8f/	.	8a-/)	.	.	.	.	.	.	.	.	.	.	.	.	.	.	.	.	.
!	!	!	!LO:SIC:s=(8e-	!	!	!	!	!	!	!	!	!	!	!	!	!	!	!	!	!	!	!
4r	.	.	8e-/	.	(8g/	.	.	.	4r	.	4r	.	.	.	4r	.	4r	.	4r	.	4r	.
!	!	!	!LO:SIC:s=8dJ)	!	!	!	!	!	!	!	!	!	!	!	!	!	!	!	!	!	!	!
.	.	.	8d/J	.	8f/J)	.	.	.	.	.	.	.	.	.	.	.	.	.	.	.	.	.
=33	=33	=33	=33	=33	=33	=33	=33	=33	=33	=33	=33	=33	=33	=33	=33	=33	=33	=33	=33	=33	=33	=33
!	!	!	!	!	!LO:SIC:s=(8gL	!	!	!	!	!LO:MO:mod=do-	!	!LO:MO:mod=do-	!	!	!	!	!	!	!	!	!	!
8E-\	.	.	(8e-/L	.	8g/L	.	0.r	.	2e-\	Do-	2g\	Do-	0.r	.	0.r	.	0.r	.	2ee-\	.	2gg\	.
!	!	!	!	!	!LO:SIC:s=8b-)	!	!	!	!	!	!	!	!	!	!	!	!	!	!	!	!	!
8r	.	.	8g/)	.	8b-/	.	.	.	.	.	.	.	.	.	.	.	.	.	.	.	.	.
!	!	!	!	!	!LO:SIC:s=(8g	!	!	!	!	!	!	!	!	!	!	!	!	!	!	!	!	!
8E-\	.	.	(8e-/	.	8g/	.	.	.	.	.	.	.	.	.	.	.	.	.	.	.	.	.
!	!	!	!	!	!LO:SIC:s=8b-)	!	!	!	!	!	!	!	!	!	!	!	!	!	!	!	!	!
8r	.	.	8g/)	.	8b-/	.	.	.	.	.	.	.	.	.	.	.	.	.	.	.	.	.
!	!	!	!	!	!	!	!	!	!	!	!	!	!	!	!	!	!	!	!	!	!	!LO:MO:mod=!null:null
!	!	!	!	!	!LO:SIC:s=(8f	!	!	!	!	!	!	!	!	!	!	!	!	!	!	!LO:MO:null:mod=<	!	!LO:HP:a:t=Cres
8BB-/	.	.	(8d/	.	8f/	.	.	.	4f\	-na	4a-\	-na	.	.	.	.	.	.	8ff\L	.	8aa-\L	<
!	!	!	!	!	!LO:SIC:s=8a-J)	!	!	!	!	!	!	!	!	!	!	!	!	!	!	!	!	!
8r	.	.	8f/J)	.	8a-/J	.	.	.	.	.	.	.	.	.	.	.	.	.	16ee-\L	.	16gg\L	.
!	!	!	!	!	!	!	!	!	!	!	!	!	!	!	!	!	!	!	!	!LO:HP:a:t=Cres	!	!
!	!	!	!	!	!	!	!	!	!	!	!	!	!	!	!	!	!	!	!	!LO:MO:mod=.	!	!
.	.	.	.	.	.	.	.	.	.	.	.	.	.	.	.	.	.	.	16ff\JJ	<	16aa-\JJ	.
!	!	!	!	!	!	!	!	!	!	!	!	!	!	!	!	!	!	!	!LO:LB:g=original	!	!	!
=34	=34	=34	=34	=34	=34	=34	=34	=34	=34	=34	=34	=34	=34	=34	=34	=34	=34	=34	=34	=34	=34	=34
*	*	*	*tremolo	*	*tremolo	*	*	*	*	*	*	*	*	*	*	*	*	*	*	*	*	*
!	!	!	!	!	!	!	!	!	!LO:SIC:s=(4.g	!	!	!	!	!	!	!	!	!	!	!LO:DY:a:Bi:t=f.	!	!LO:DY:a:Bi:t=f.
8E-\	.	.	8e-/L	.	8g/L	.	.	.	4.g\	e-	(4.b-\	e-	.	.	.	.	.	.	(4.gg\	f	(4.bb-\	f
8r	.	.	8g/	.	8b-/	.	.	.	.	.	.	.	.	.	.	.	.	.	.	.	.	.
8E-\	.	.	8e-/	.	8g/	.	.	.	.	.	.	.	.	.	.	.	.	.	.	.	.	.
!	!	!	!	!	!	!	!	!	!LO:SIC:s=8f)	!	!	!	!	!	!	!	!	!	!	!	!	!
8r	.	.	8g/	.	8b-/	.	.	.	8f\	.	8a-\)	.	.	.	.	.	.	.	8ff\)	.	8aa-\)	.
!	!	!	!	!	!	!	!	!	!	!	!	!	!	!	!	!	!	!	!	!	!LO:SIC:s=4gg|	!
8E-\	.	.	8e-/	.	8g/	.	.	.	4e-\	-is	4g\	-is	.	.	.	.	.	.	4ee-|\	.	4gg\	.
8r	.	.	8g/J	.	8b-/J	.	.	.	.	.	.	.	.	.	.	.	.	.	.	.	.	.
*	*	*	*Xtremolo	*	*Xtremolo	*	*	*	*	*	*	*	*	*	*	*	*	*	*	*	*	*
!	!	!	!LO:LB:g=original	!	!	!	!	!	!	!	!	!	!	!	!	!	!	!	!	!	!	!
=35	=35	=35	=35	=35	=35	=35	=35	=35	=35	=35	=35	=35	=35	=35	=35	=35	=35	=35	=35	=35	=35	=35
!	!	!	!LO:SIC:s=(8fL	!	!LO:SIC:s=(8a-L	!	!	!	!	!	!	!	!	!	!	!	!	!	!	!	!	!
8A-\	x 6	.	8f/L	.	8a-/L	.	.	.	4f\	Do-	4a-\	Do-	.	.	.	.	.	.	4ff\	.	4aa-\	.
!	!	!	!LO:SIC:s=8a-)	!	!LO:SIC:s=8cc)	!	!	!	!	!	!	!	!	!	!	!	!	!	!	!	!	!
8r	.	.	8a-/	.	8cc/	.	.	.	.	.	.	.	.	.	.	.	.	.	.	.	.	.
!	!	!	!LO:SIC:s=(8e-	!	!LO:SIC:s=(8g	!	!	!	!	!	!	!	!	!	!	!	!	!	!	!	!	!
8B-\	x 4	.	8e-/	.	8g/	.	.	.	4e-\	.	4g\	.	.	.	.	.	.	.	4ee-\	.	4gg\	.
!	!	!	!LO:SIC:s=8g)	!	!LO:SIC:s=8b-)	!	!	!	!	!	!	!	!	!	!	!	!	!	!	!	!	!
8r	.	.	8g/	.	8b-/	.	.	.	.	.	.	.	.	.	.	.	.	.	.	.	.	.
!	!	!	!LO:SIC:s=(8d	!	!LO:SIC:s=(8f	!	!	!	!	!	!	!	!	!	!	!	!	!	!	!	!	!
8BB-/	x 3	.	8d/	.	8f/	.	.	.	4d\	-mi-	4f\	-mi-	.	.	.	.	.	.	4dd\	.	4ff\	.
!	!	!	!LO:SIC:s=8fJ)	!	!LO:SIC:s=8a-J)	!	!	!	!	!	!	!	!	!	!	!	!	!	!	!	!	!
8r	.	.	8f/J	.	8a-/J	.	.	.	.	.	.	.	.	.	.	.	.	.	.	.	.	.
=36	=36	=36	=36	=36	=36	=36	=36	=36	=36	=36	=36	=36	=36	=36	=36	=36	=36	=36	=36	=36	=36	=36
!	!	!	!	!	!LO:SIC:s=(8gL	!	!	!	!	!	!	!	!	!	!	!	!	!	!	!	!	!
4E-\	.	.	(8e-/L	.	8g/L	.	.	.	4e-\	-ne	4g\	-ne	.	.	.	.	.	.	4ee-\	.	4gg\	.
.	.	.	16d/L	.	16f/L	.	.	.	.	.	.	.	.	.	.	.	.	.	.	.	.	.
!	!	!	!	!	!LO:SIC:s=16gJJ)	!	!	!	!	!	!	!	!	!	!	!	!	!	!	!	!	!
.	.	.	16e-/JJ)	.	16g/JJ	.	.	.	.	.	.	.	.	.	.	.	.	.	.	.	.	.
!	!	!	!	!LO:MO:mod=!null:null	!	!LO:MO:mod=!null:null	!	!	!	!	!	!	!	!	!	!	!	!	!	!	!	!
!	!	!	!	!LO:HP:a:t=Cres	!LO:SIC:s=8a-L|	!LO:HP:a:t=Cres	!	!	!	!	!	!	!	!	!	!	!	!	!	!	!	!
4r	.	.	8f|/L	<	8a-'\L	<	.	.	4r	.	4r	.	.	.	.	.	.	.	4r	.	4r	.
!	!	!	!	!	!LO:SIC:s=8b-|	!	!	!	!	!	!	!	!	!	!	!	!	!	!	!	!	!
.	.	.	8g|/	.	8b-'\	.	.	.	.	.	.	.	.	.	.	.	.	.	.	.	.	.
!	!	!	!	!	!LO:SIC:s=8cc|	!	!	!	!	!	!	!	!	!	!	!	!	!	!	!	!	!
4r	.	.	8a-|/	.	8cc'\	.	.	.	4r	.	4r	.	.	.	.	.	.	.	4r	.	4r	.
!	!	!	!	!	!LO:SIC:s=8ddJ|	!	!	!	!	!	!	!	!	!	!	!	!	!	!	!	!	!
.	.	.	8f|/J	.	8dd'\J	.	.	.	.	.	.	.	.	.	.	.	.	.	.	.	.	.
!LO:LB:g=original	!	!	!	!	!LO:LB:g=original	!	!	!	!	!	!	!	!	!	!	!	!	!	!	!	!	!
=37	=37	=37	=37	=37	=37	=37	=37	=37	=37	=37	=37	=37	=37	=37	=37	=37	=37	=37	=37	=37	=37	=37
!	!	!	!	!	!	!	!	!	!	!	!	!	!	!	!	!	!	!	!	!LO:MO:null:mod=!LO&colon;DY&colon;ed=brack	!	!
!LO:MO:mod=!LO&colon;TX&colon;a&colon;i&colon;t=Tutti	!	!	!	!	!	!	!	!	!	!	!	!	!	!	!	!	!	!	!	!	!	!
!LO:TX:t=Tutti	!	!	!	!LO:DY:a:Bi:t=for	!LO:SIC:s=(8.ee-L	!LO:DY:a:Bi:t=for	!	!	!	!	!	!	!	!	!	!LO:DY:a:Bi:t=for.	!	!LO:DY:a:Bi:t=for	!	!LO:MO:null:mod=f	!	!LO:DY:a:rj:Bi:t=f.
4E-\	.	.	4g/	f	8.ee-\L	f	4E-\	et	4B-\	et	4g\	et	4ee-\	et	2.G/	f	2.e-\	f	2.ee-\	.	2.gg\	f
!	!	!	!	!	!LO:SIC:s=16b-Jk)	!	!	!	!	!	!	!	!	!	!	!	!	!	!	!	!	!
.	.	.	.	.	16b-\Jk	.	.	.	.	.	.	.	.	.	.	.	.	.	.	.	.	.
4E-\	.	.	8r	.	8r	.	4E-\	lux	4B-\	lux	4g\	lux	4ee-\	lux	.	.	.	.	.	.	.	.
.	.	.	8g/L	.	8b-/L	.	.	.	.	.	.	.	.	.	.	.	.	.	.	.	.	.
4E-\	.	.	8f/	.	8a-/	.	4E-\	per-	4B-\	per-	4g\	per-	4ee-\	per-	.	.	.	.	.	.	.	.
.	.	.	8e-/J	.	8g/J	.	.	.	.	.	.	.	.	.	.	.	.	.	.	.	.	.
=38	=38	=38	=38	=38	=38	=38	=38	=38	=38	=38	=38	=38	=38	=38	=38	=38	=38	=38	=38	=38	=38	=38
!	!	!	!	!	!LO:SIC:s=(8.fL	!	!	!	!	!	!	!	!	!	!	!	!	!	!	!	!	!
4B-\	.	.	(8.d/L	.	8.f\L	.	4.B-\	-pe-	4.B-\	-pe-	4.f\	-pe-	4.dd\	-pe-	2.B-/	.	2.f\	.	2.dd\	.	2.ff\	.
!	!	!	!	!	!LO:SIC:s=16ddJk)	!	!	!	!	!	!	!	!	!	!	!	!	!	!	!	!	!
.	.	.	16f/Jk)	.	16dd\Jk	.	.	.	.	.	.	.	.	.	.	.	.	.	.	.	.	.
4BB-/	.	.	8r	.	16r	.	.	.	.	.	.	.	.	.	.	.	.	.	.	.	.	.
.	.	.	.	.	16ryy	.	.	.	.	.	.	.	.	.	.	.	.	.	.	.	.	.
.	.	.	8f/	.	8dd\	.	8B-\	-tu-	8B-\	-tu-	8f\	-tu-	8dd\	-tu-	.	.	.	.	.	.	.	.
!	!	!	!	!	!LO:SIC:s=(8.ddtL	!	!	!	!	!	!	!	!	!	!	!	!	!	!	!	!	!
4B-\	.	.	(8.fT/L	.	8.ddt\L	.	4B-\	-a	4B-\	-a	4f\	-a	4dd\	-a	.	.	.	.	.	.	.	.
!	!	!	!	!	!LO:SIC:s=32ccLL	!	!	!	!	!	!	!	!	!	!	!	!	!	!	!	!	!
.	.	.	32e-/LL	.	(32cc\LL	.	.	.	.	.	.	.	.	.	.	.	.	.	.	.	.	.
.	.	.	32f/JJJ)	.	32dd\JJJ)	.	.	.	.	.	.	.	.	.	.	.	.	.	.	.	.	.
!	!	!	!	!	!	!	!	!	!LO:LB:g=original	!	!LO:LB:g=original	!	!	!	!	!	!	!	!	!	!LO:LB:g=original	!
=39	=39	=39	=39	=39	=39	=39	=39	=39	=39	=39	=39	=39	=39	=39	=39	=39	=39	=39	=39	=39	=39	=39
*	*	*	*	*	*	*	*	*ij	*	*ij	*	*ij	*	*ij	*	*	*	*	*	*	*	*
4E-\	.	.	4g/	.	(8.ee-\L	.	4E-\	et	4B-\	et	4g\	et	4ee-\	et	2.G/	.	2.e-\	.	2.ee-\	.	2.gg\	.
.	.	.	.	.	16b-\Jk)	.	.	.	.	.	.	.	.	.	.	.	.	.	.	.	.	.
4E-\	.	.	8r	.	8r	.	4E-\	lux	4B-\	lux	4g\	lux	4ee-\	lux	.	.	.	.	.	.	.	.
.	.	.	8g/L	.	8b-/L	.	.	.	.	.	.	.	.	.	.	.	.	.	.	.	.	.
4E-\	.	.	8f/	.	8a-/	.	4E-\	per-	4B-\	per-	4g\	per-	4ee-\	per-	.	.	.	.	.	.	.	.
.	.	.	8e-/J	.	8g/J	.	.	.	.	.	.	.	.	.	.	.	.	.	.	.	.	.
=40	=40	=40	=40	=40	=40	=40	=40	=40	=40	=40	=40	=40	=40	=40	=40	=40	=40	=40	=40	=40	=40	=40
4B-\	.	.	(8.d/L	.	(8.f\L	.	4.B-\	-pe-	4.B-\	-pe-	4.f\	-pe-	4.dd\	-pe-	2.B-/	.	2.f\	.	2.dd\	.	2.ff\	.
.	.	.	16f/Jk)	.	16dd\Jk)	.	.	.	.	.	.	.	.	.	.	.	.	.	.	.	.	.
4BB-/	.	.	8r	.	8r	.	.	.	.	.	.	.	.	.	.	.	.	.	.	.	.	.
.	.	.	8f/	.	8dd\	.	8B-\	-tu-	8B-\	-tu-	8f\	-tu-	8dd\	-tu-	.	.	.	.	.	.	.	.
!	!	!	!	!	!LO:SIC:s=(8.ddtL	!	!	!	!	!	!	!	!	!	!	!	!	!	!	!	!	!
4B-\	.	.	(8.fT/L	.	8.ddt\L	.	4B-\	-a	4B-\	-a	4f\	-a	4dd\	-a	.	.	.	.	.	.	.	.
*	*	*	*	*	*	*	*	*Xij	*	*Xij	*	*Xij	*	*Xij	*	*	*	*	*	*	*	*
!	!	!	!	!	!LO:SIC:s=32ccLL	!	!	!	!	!	!	!	!	!	!	!	!	!	!	!	!	!
.	.	.	32e-/LL	.	(32cc\LL	.	.	.	.	.	.	.	.	.	.	.	.	.	.	.	.	.
.	.	.	32f/JJJ)	.	32dd\JJJ)	.	.	.	.	.	.	.	.	.	.	.	.	.	.	.	.	.
!	!	!	!LO:LB:g=original	!	!	!	!LO:LB:g=original	!	!	!	!	!	!LO:LB:g=original	!	!	!	!	!	!	!	!	!
=41	=41	=41	=41	=41	=41	=41	=41	=41	=41	=41	=41	=41	=41	=41	=41	=41	=41	=41	=41	=41	=41	=41
4E-\	x 3	.	(8.g/L	.	(8.ee-\L	.	4.E-\	lu-	4.B-\	lu-	4.g\	lu-	4.ee-\	lu-	2.e-\	.	2.g\	.	2.ee-\	.	2.gg\	.
.	.	.	16e-/Jk)	.	16g\Jk)	.	.	.	.	.	.	.	.	.	.	.	.	.	.	.	.	.
4e-\	.	.	8r	.	8r	.	.	.	.	.	.	.	.	.	.	.	.	.	.	.	.	.
.	.	.	(16e-/LL	.	(16g/LL	.	8E-\	-ce-	8B-\	-ce-	8g\	-ce-	8ee-\	-ce-	.	.	.	.	.	.	.	.
.	.	.	16f/JJ)	.	16a-/JJ)	.	.	.	.	.	.	.	.	.	.	.	.	.	.	.	.	.
4e-\	.	.	8e-|/L	.	8g|/L	.	4E-\	-at	4B-\	-at	4g\	-at	4ee-\	-at	.	.	.	.	.	.	.	.
.	.	.	8e-|/J	.	8g|/J	.	.	.	.	.	.	.	.	.	.	.	.	.	.	.	.	.
=42	=42	=42	=42	=42	=42	=42	=42	=42	=42	=42	=42	=42	=42	=42	=42	=42	=42	=42	=42	=42	=42	=42
*	*	*	*	*	*	*	*	*ij	*	*ij	*	*ij	*	*ij	*	*	*	*	*	*	*	*
4c\	x _	.	(8.g/L	.	(8.ee-\L	.	4.c\	lu-	4.c\	lu-	4.g\	lu-	4.ee-\	lu-	2.e-\	.	2.g\	.	2.ee-\	.	2.gg\	.
.	.	.	16e-/Jk)	.	16g\Jk)	.	.	.	.	.	.	.	.	.	.	.	.	.	.	.	.	.
!	!	!	!	!	!LO:LB:g=original	!	!	!	!	!	!	!	!	!	!	!	!	!	!	!	!	!
4c\	.	.	8r	.	8r	.	.	.	.	.	.	.	.	.	.	.	.	.	.	.	.	.
.	.	.	(16e-/LL	.	(16g/LL	.	8c\	-ce-	8c\	-ce-	8g\	-ce-	8ee-\	-ce-	.	.	.	.	.	.	.	.
.	.	.	16f/JJ)	.	16a-/JJ)	.	.	.	.	.	.	.	.	.	.	.	.	.	.	.	.	.
4c\	x x	.	8e-|/L	.	8g|/L	.	4c\	-at	4c\	-at	4g\	-at	4ee-\	-at	.	.	.	.	.	.	.	.
*	*	*	*	*	*	*	*	*Xij	*	*Xij	*	*Xij	*	*Xij	*	*	*	*	*	*	*	*
.	.	.	8e-|/J	.	8g|/J	.	.	.	.	.	.	.	.	.	.	.	.	.	.	.	.	.
=43	=43	=43	=43	=43	=43	=43	=43	=43	=43	=43	=43	=43	=43	=43	=43	=43	=43	=43	=43	=43	=43	=43
4A-\	.	.	8f/L	.	8a-/L	.	4A-\	e-	4c\	e-	4a-\	e-	4ff\	e-	4f\	.	4a-\	.	4ff\	.	4aa-\	.
.	.	.	16a-/L	.	16cc/L	.	.	.	.	.	.	.	.	.	.	.	.	.	.	.	.	.
.	.	.	16f/JJ	.	16a-/JJ	.	.	.	.	.	.	.	.	.	.	.	.	.	.	.	.	.
4B-\	.	.	4e-/	.	4g/	.	4B-\	.	2B-\	.	4g\	.	4ee-\	.	4e-\	.	4g\	.	4ee-\	.	4gg\	.
4BB-/	.	.	4d/	.	4f/	.	4BB-/	.	.	.	4f\	.	4dd\	.	4B-/	.	4f\	.	4dd\	.	4ff\	.
!	!	!	!	!	!	!	!	!	!	!	!	!	!	!	!LO:LB:g=original	!	!	!	!LO:LB:g=original	!	!	!
=44	=44	=44	=44	=44	=44	=44	=44	=44	=44	=44	=44	=44	=44	=44	=44	=44	=44	=44	=44	=44	=44	=44
!	!	!LO:DY:a:Bi:t=p.	!	!LO:DY:a:Bi:t=p.	!	!LO:DY:a:Bi:t=p.	!	!	!	!	!	!	!	!	!LO:TX:a:t=Solo:mod=	!	!LO:TX:a:t=Solo:mod=	!	!LO:TX:a:t=Solo:mod=	!	!LO:TX:a:t=Solo:mod=	!
4E-\	.	p	2.B-/	p	2g/	p	4E-\	-is	4B-\	-is	4g\	-is	4ee-\	-is	2G/	.	2e-\	.	8ee-\	.	8gg\	.
.	.	.	.	.	.	.	.	.	.	.	.	.	.	.	.	.	.	.	8r	.	8r	.
!LO:TX:t=P:problem=wykreślona kreska taktowa	!	!	!	!	!	!	!	!	!	!	!	!	!	!	!	!	!	!	!	!	!	!
4E-\	.	.	.	.	.	.	4r	.	4r	.	4r	.	4r	.	.	.	.	.	(8gg\L	.	(8bb-\L	.
.	.	.	.	.	.	.	.	.	.	.	.	.	.	.	.	.	.	.	16ee-\Jk)	.	16gg\Jk)	.
.	.	.	.	.	.	.	.	.	.	.	.	.	.	.	.	.	.	.	16r	.	16r	.
4D\	x 6	.	.	.	4f/	.	4r	.	4r	.	4r	.	4r	.	4B-/	.	4f\	.	(8ff\L	.	(8aa-\L	.
.	.	.	.	.	.	.	.	.	.	.	.	.	.	.	.	.	.	.	16dd\Jk)	.	16ff\Jk)	.
.	.	.	.	.	.	.	.	.	.	.	.	.	.	.	.	.	.	.	16r	.	16r	.
!	!	!	!	!	!	!	!	!	!	!	!	!	!	!	!	!	!LO:LB:g=original	!	!	!	!	!
=45	=45	=45	=45	=45	=45	=45	=45	=45	=45	=45	=45	=45	=45	=45	=45	=45	=45	=45	=45	=45	=45	=45
!	!	!	!	!	!	!	!LO:N:vis=0	!	!LO:N:vis=0	!	!LO:N:vis=0	!	!LO:N:vis=0	!	!	!	!	!	!	!	!	!
4C/	.	.	2c/	.	4e-/	.	1.r	.	1.r	.	1.r	.	1.r	.	4e-\	.	4g\	.	(8b-\L	.	(8gg\L	.
.	.	.	.	.	.	.	.	.	.	.	.	.	.	.	.	.	.	.	16g\Jk)	.	16ee-\Jk)	.
.	.	.	.	.	.	.	.	.	.	.	.	.	.	.	.	.	.	.	16r	.	16r	.
4AA-/	x 6	.	.	.	4f/	.	.	.	.	.	.	.	.	.	4f\	.	4a-\	.	(8a-\L	.	(8ff\L	.
.	.	.	.	.	.	.	.	.	.	.	.	.	.	.	.	.	.	.	16cc\Jk)	.	16aa-\Jk)	.
.	.	.	.	.	.	.	.	.	.	.	.	.	.	.	.	.	.	.	16r	.	16r	.
4BB-/	.	.	4A-/	.	4d/	.	.	.	.	.	.	.	.	.	4B-/	.	4f\	.	(8f/L	.	(8dd\L	.
.	.	.	.	.	.	.	.	.	.	.	.	.	.	.	.	.	.	.	16a-/Jk)	.	16ff\Jk)	.
.	.	.	.	.	.	.	.	.	.	.	.	.	.	.	.	.	.	.	16r	.	16r	.
!LO:LB:g=original	!	!	!	!	!	!	!	!	!	!	!	!	!	!	!	!	!	!	!	!	!LO:LB:g=original	!
=46	=46	=46	=46	=46	=46	=46	=46	=46	=46	=46	=46	=46	=46	=46	=46	=46	=46	=46	=46	=46	=46	=46
4E-\	.	.	4G/	.	4e-/	.	.	.	.	.	.	.	.	.	4G/	.	4e-\	.	(8g/L	.	(8ee-\L	.
.	.	.	.	.	.	.	.	.	.	.	.	.	.	.	.	.	.	.	16b-/Jk)	.	16gg\Jk)	.
.	.	.	.	.	.	.	.	.	.	.	.	.	.	.	.	.	.	.	16r	.	16r	.
4E-\	.	.	4G/	.	4e-/	.	.	.	.	.	.	.	.	.	4G/	.	4e-\	.	(8g/L	.	(8ee-\L	.
.	.	.	.	.	.	.	.	.	.	.	.	.	.	.	.	.	.	.	16b-/Jk)	.	16gg\Jk)	.
.	.	.	.	.	.	.	.	.	.	.	.	.	.	.	.	.	.	.	16r	.	16r	.
4E-\	.	.	4G/	.	4e-/	.	.	.	.	.	.	.	.	.	4G/	.	4e-\	.	(8g/L	.	(8ee-\L	.
.	.	.	.	.	.	.	.	.	.	.	.	.	.	.	.	.	.	.	16b-/Jk)	.	16gg\Jk)	.
.	.	.	.	.	.	.	.	.	.	.	.	.	.	.	.	.	.	.	16r	.	16r	.
=47	=47	=47	=47	=47	=47	=47	=47	=47	=47	=47	=47	=47	=47	=47	=47	=47	=47	=47	=47	=47	=47	=47
2E-\	.	.	2G/	.	2e-/	.	2.r	.	2.r	.	2.r	.	2.r	.	2G/	.	2e-\	.	2g/	.	2ee-\	.
4r	.	.	4r	.	4r	.	.	.	.	.	.	.	.	.	4r	.	4r	.	4r	.	4r	.
!	!	!	!	!	!	!	!	!	!	!	!	!	!LO:TX:b:i:t=Finis:mod=	!	!	!	!	!	!	!	!	!
==	==	==	==	==	==	==	==	==	==	==	==	==	==	==	==	==	==	==	==	==	==	==
*-	*-	*-	*-	*-	*-	*-	*-	*-	*-	*-	*-	*-	*-	*-	*-	*-	*-	*-	*-	*-	*-	*-
!!!system-decoration: [(g1)][(g2)][(g3)][(g4)]<s11>
!!!RDF**kern: | = vertical stroke
!!!filter-modern: sic -sq | autostem -r | tie -s | shed -k -e "s/[<>]//g" | shed -e "s/LO:DY:(a|b|rj)/LO:dy:$1/L" | shed -e "s/^(\d+[\/\\]right)/$1yy/I; s/^(\d+[\/\\]left)/$1yy/I" | shed -e "s/TX(.*):t=P:/tx$1:t=P:/LG" | humtr -p | modori -m
!!!ENC: Anastazja Marusiak
!!!END: 2021-12-02
!!!EED: Katarzyna Serwa
!!!EEV: 2021-12-15
!!!ENC-modern: Marta Lawrence
!!!END-modern: 2022-07-28
